X:167
T:Steirer
C:traditionell
R:Steirer
A:Bad Ischl, Salzkammergut
B:"Pfeifermusik aus Bad Ischl", Lois Blamberger, 3. Auflage, Bad Ischl 1990
S:im buch mit der Angabe: aus der Sammlung vom Blamberger Lois
N:im buch in D, nr. 6/5
Z:abc transcription Simon Wascher
M:3/4
L:1/8
K:D
V:1
(FG) |\
(Afedcd) | (eG) e3 d | (cAcegb) | a3 (gfd) |\
(Afedcd) | (eG) e3 d | (cgcagA) | d4 :|
V:2
(DE) |\
(FdcBAB) | (cE) c3 B | (AEAceg) | f3 (edB) |\
(FdcBAB) | (cE) c3 B | (AcEecA) | F4 :|
P:Ausgang
V:1
d2 z2 d2 | (cEAc) (Ec) | d4 (AF) | D4 (FA) | d4 |]
V:2
[f2F2] z2 a2 | (gAce) (Aa) | ""f4 (dA) | ""F4 (Ad) | Hf4 |]
